dist/img/svg/cubes_icon.svg

<svg version="1.2" baseProfile="tiny-ps" xmlns="http://www.w3.org/2000/svg" width="1185" height="1186"><style/><g id="Capa 1"><path id="&lt;Compound Path&gt;" fill-rule="evenodd" d="M1180.31 818.87c2.73 2.74 4.24 6.37 4.24 10.24 0 3.86-1.51 7.5-4.24 10.23l-48.7 48.7 48.7 48.7c2.73 2.73 4.24 6.37 4.24 10.23 0 3.87-1.51 7.5-4.24 10.24l-48.7 48.69 48.7 48.7c2.73 2.73 4.24 6.37 4.24 10.24 0 3.86-1.51 7.5-4.24 10.23l-106.08 106.08a14.372 14.372 0 01-10.23 4.24c-3.87 0-7.5-1.51-10.23-4.24l-48.7-48.7-48.7 48.7a14.389 14.389 0 01-10.23 4.24c-3.87 0-7.51-1.51-10.24-4.24l-48.7-48.7-48.69 48.7a14.412 14.412 0 01-10.24 4.24c-3.86 0-7.5-1.51-10.23-4.24l-48.7-48.7-48.7 48.7a14.372 14.372 0 01-10.23 4.24c-3.87 0-7.5-1.51-10.23-4.24l-48.7-48.7-48.7 48.7a14.389 14.389 0 01-10.23 4.24c-3.87 0-7.5-1.51-10.24-4.24l-48.69-48.7-48.7 48.7c-2.74 2.73-6.37 4.24-10.23 4.24-3.87 0-7.5-1.51-10.24-4.24l-106.08-106.08a14.389 14.389 0 01-4.24-10.23c0-3.87 1.51-7.5 4.24-10.24l48.7-48.7-38.5-38.5-48.7 48.7a14.389 14.389 0 01-10.23 4.24c-3.87 0-7.5-1.51-10.24-4.24L190.63 907.32a14.33 14.33 0 01-4.24-10.23c0-3.87 1.5-7.5 4.24-10.24l48.69-48.69-59.84-59.85-48.7 48.7a14.372 14.372 0 01-10.23 4.24c-3.87 0-7.5-1.51-10.23-4.24L4.24 720.93A14.372 14.372 0 010 710.7c0-3.87 1.51-7.5 4.24-10.24l48.7-48.69-48.7-48.7A14.389 14.389 0 010 592.84c0-3.87 1.51-7.5 4.24-10.24l48.7-48.7-48.7-48.69A14.412 14.412 0 010 474.97c0-3.86 1.51-7.5 4.24-10.23l48.7-48.7-48.7-48.7A14.389 14.389 0 010 357.11c0-3.87 1.51-7.5 4.24-10.24l48.7-48.69-48.7-48.7A14.389 14.389 0 010 239.25c0-3.87 1.51-7.51 4.24-10.24l48.7-48.7-48.7-48.7A14.372 14.372 0 010 121.38c0-3.86 1.51-7.5 4.24-10.23L110.32 5.07A14.33 14.33 0 01120.55.83c3.87 0 7.5 1.5 10.24 4.24l48.69 48.7 48.7-48.7c2.73-2.74 6.37-4.24 10.24-4.24 3.86 0 7.5 1.5 10.23 4.24l48.7 48.7 48.7-48.7A14.33 14.33 0 01356.28.83c3.87 0 7.5 1.5 10.23 4.24l48.7 48.7 48.7-48.7c2.73-2.74 6.37-4.24 10.23-4.24 3.81 0 7.54 1.54 10.23 4.24l48.7 48.7 48.7-48.7C584.5 2.33 588.14.83 592 .83c3.87 0 7.51 1.5 10.24 4.24l48.7 48.7 48.69-48.7A14.37 14.37 0 01709.87.83c3.87 0 7.5 1.5 10.24 4.24l106.08 106.08a14.38 14.38 0 014.23 10.23c0 3.87-1.5 7.5-4.23 10.24l-48.7 48.7 59.84 59.84 48.7-48.7c2.73-2.73 6.36-4.24 10.23-4.24s7.5 1.51 10.24 4.24l108.9 108.9c5.64 5.64 5.64 14.82 0 20.47l-48.56 48.56 38.37 38.38 48.57-48.56a14.33 14.33 0 0110.23-4.24c3.86 0 7.5 1.5 10.23 4.24l106.08 106.08c2.73 2.73 4.24 6.36 4.24 10.23s-1.51 7.5-4.24 10.23l-48.7 48.7 48.7 48.7c2.73 2.73 4.24 6.37 4.24 10.23 0 3.87-1.5 7.5-4.24 10.24l-48.7 48.7 48.7 48.69a14.37 14.37 0 014.24 10.24c0 3.86-1.5 7.5-4.24 10.23l-48.7 48.7 48.69 48.69zM857.93 260.49l88.44 88.43 38.32-38.33-88.43-88.43-38.33 38.33zm-117.89.03L887.32 407.8l38.49-38.49-96.84-96.85-.32-.28c-.64-.47-1.13-.89-1.56-1.32l-48.69-48.7-38.36 38.36zM200.86 758.75l38.47-38.46-48.7-48.7a14.372 14.372 0 01-4.24-10.23c0-3.87 1.51-7.5 4.24-10.24l48.7-48.69-48.7-48.7a14.389 14.389 0 01-4.24-10.23c0-3.87 1.51-7.5 4.24-10.24l48.7-48.69-48.7-48.7a14.412 14.412 0 01-4.24-10.24c0-3.86 1.51-7.5 4.24-10.23l48.7-48.7-48.7-48.7a14.372 14.372 0 01-4.24-10.23c0-3.86 1.51-7.5 4.24-10.23l106.08-106.08a14.33 14.33 0 0110.23-4.24c3.86 0 7.5 1.5 10.24 4.24l48.69 48.7 48.7-48.7c2.73-2.74 6.37-4.24 10.23-4.24 3.87 0 7.51 1.5 10.24 4.24l48.7 48.7 48.69-48.7a14.37 14.37 0 0110.24-4.24c3.81 0 7.54 1.54 10.23 4.24l48.7 48.7 48.7-48.7a14.33 14.33 0 0110.23-4.24c3.81 0 7.54 1.54 10.23 4.24l48.7 48.7 38.46-38.47-11.14-11.14a14.37 14.37 0 01-4.24-10.24c0-3.86 1.5-7.5 4.24-10.23l48.69-48.7-85.6-85.61-48.7 48.7a14.347 14.347 0 01-10.23 4.24c-3.87 0-7.51-1.5-10.24-4.24L592 35.77l-48.69 48.7a14.37 14.37 0 01-10.24 4.24c-3.86 0-7.5-1.5-10.23-4.24l-48.7-48.7-48.7 48.7c-2.69 2.7-6.42 4.24-10.23 4.24-3.87 0-7.5-1.5-10.23-4.24l-48.7-48.7-48.7 48.7a14.347 14.347 0 01-10.23 4.24c-3.87 0-7.5-1.5-10.24-4.24l-48.69-48.7-48.7 48.7a14.37 14.37 0 01-10.24 4.24c-3.86 0-7.5-1.5-10.23-4.24l-48.7-48.7-85.61 85.61 48.7 48.7c2.73 2.73 4.24 6.37 4.24 10.23 0 3.87-1.51 7.51-4.24 10.24l-48.7 48.7 48.7 48.7c2.73 2.73 4.24 6.36 4.24 10.23 0 3.86-1.51 7.5-4.24 10.23l-48.7 48.7 48.7 48.7c2.73 2.73 4.24 6.36 4.24 10.23s-1.51 7.5-4.24 10.24l-48.7 48.69 48.7 48.7c2.73 2.73 4.24 6.37 4.24 10.23 0 3.87-1.51 7.5-4.24 10.24l-48.7 48.7 48.7 48.69c2.73 2.74 4.24 6.37 4.24 10.24 0 3.86-1.51 7.5-4.24 10.23l-48.7 48.7 85.61 85.61 48.7-48.7c2.73-2.73 6.37-4.24 10.23-4.24 3.87 0 7.51 1.51 10.24 4.24l11.14 11.14zm158.2-36.58l-.22-.19c-.17-.15-.34-.29-.5-.45l-98.59-98.59-38.42 38.42 47.06 47.06.28.24c.47.37.93.76 1.36 1.19l98.69 98.69 38.35-38.36-48.01-48.01zm9.67-149.37l38.35-38.35-147.3-147.26-38.45 38.44 46.94 46.94.29.25c.61.47 1.07.88 1.47 1.27l98.7 98.71zm-.13-117.73l32.58-32.59L253.9 275.2l-32.57 32.57 147.27 147.3zm53.05-53.06l32.57-32.58-147.28-147.27-32.57 32.57 147.28 147.28zm111.98 5.89l38.49-38.5-97.91-97.9-.2-.18c-.17-.15-.34-.3-.51-.46l-48.7-48.7-38.45 38.46L533.63 407.9zm117.9-.03l38.49-38.5-97.28-97.28-.24-.21c-.39-.32-.77-.66-1.13-1.02l-48.7-48.7-38.43 38.42 147.29 147.29zm117.89-.04l38.5-38.49-97.07-97.07-.27-.24c-.46-.36-.92-.74-1.35-1.17l-48.7-48.7-38.39 38.39 147.28 147.28zM368.57 690.82l38.51-38.51-48.7-48.69c-.4-.41-.8-.87-1.26-1.47l-97.2-97.24-38.59 38.59 48.7 48.69c.17.17.33.35.48.53l98.06 98.1zm-20.51 256.16l-88.31-88.31-38.42 38.42 88.31 88.31 38.42-38.42zm20.51-20.42l38.51-38.52-48.7-48.69c-.38-.39-.76-.82-1.18-1.37l-97.3-97.32-38.57 38.56 48.71 48.71c.25.25.47.52.75.84l97.78 97.79zm781.05-97.45l-48.7-48.7a14.389 14.389 0 01-4.24-10.23c0-3.87 1.51-7.5 4.24-10.23l48.7-48.7-48.7-48.7a14.389 14.389 0 01-4.24-10.23c0-3.87 1.51-7.5 4.24-10.24l48.7-48.7-48.7-48.7a14.372 14.372 0 01-4.24-10.23c0-3.86 1.51-7.5 4.24-10.23l48.7-48.7-85.61-85.61-48.7 48.7a14.372 14.372 0 01-10.23 4.24c-3.87 0-7.5-1.51-10.24-4.24l-48.69-48.7-48.7 48.7a14.395 14.395 0 01-10.24 4.24c-3.86 0-7.5-1.51-10.23-4.24l-48.7-48.7-48.7 48.7a14.372 14.372 0 01-10.23 4.24c-3.87 0-7.5-1.51-10.23-4.24l-48.7-48.7-48.7 48.7a14.372 14.372 0 01-10.23 4.24c-3.87 0-7.5-1.51-10.24-4.24l-48.69-48.7-48.7 48.7a14.395 14.395 0 01-10.24 4.24c-3.86 0-7.5-1.51-10.23-4.24l-48.7-48.7-85.6 85.61 48.69 48.7a14.33 14.33 0 014.24 10.23c0 3.87-1.5 7.5-4.24 10.24l-48.69 48.69 48.69 48.7c2.74 2.73 4.24 6.37 4.24 10.23 0 3.87-1.5 7.5-4.24 10.24l-48.69 48.7 48.69 48.7a14.33 14.33 0 014.24 10.23c0 3.86-1.5 7.5-4.24 10.23l-48.69 48.7 48.69 48.7a14.33 14.33 0 014.24 10.23c0 3.87-1.5 7.5-4.24 10.24l-48.69 48.69 48.69 48.7c2.74 2.73 4.24 6.37 4.24 10.23 0 3.87-1.5 7.5-4.24 10.24l-48.69 48.7 85.6 85.61 48.7-48.7c2.73-2.74 6.37-4.24 10.24-4.24 3.86 0 7.5 1.5 10.23 4.24l48.7 48.7 48.69-48.7a14.37 14.37 0 0110.24-4.24c3.86 0 7.5 1.5 10.23 4.24l48.7 48.7 48.7-48.7a14.33 14.33 0 0110.23-4.24c3.87 0 7.5 1.5 10.24 4.24l48.69 48.7 48.7-48.7c2.73-2.74 6.37-4.24 10.23-4.24 3.87 0 7.5 1.5 10.24 4.24l48.7 48.7 48.69-48.7a14.37 14.37 0 0110.24-4.24c3.86 0 7.5 1.5 10.23 4.24l48.7 48.7 85.61-85.61-48.7-48.7a14.412 14.412 0 01-4.24-10.24c0-3.86 1.51-7.5 4.24-10.23l48.7-48.7-48.7-48.69a14.412 14.412 0 01-4.24-10.24c0-3.86 1.51-7.5 4.24-10.23l48.7-48.7z" fill="#000"/></g></svg>

<svg version="1.2" baseProfile="tiny-ps" xmlns="http://www.w3.org/2000/svg" viewBox="0 0 1185 1186" width="1185" height="1186">
	<title>Capa 1</title>
	<style>
		tspan { white-space:pre }
		.shp0 { fill: #000000 } 
	</style>
	<g id="Capa 1">
		<path id="&lt;Compound Path&gt;" fill-rule="evenodd" class="shp0" d="M1180.31 818.87C1183.04 821.61 1184.55 825.24 1184.55 829.11C1184.55 832.97 1183.04 836.61 1180.31 839.34L1131.61 888.04L1180.31 936.74C1183.04 939.47 1184.55 943.11 1184.55 946.97C1184.55 950.84 1183.04 954.47 1180.31 957.21L1131.61 1005.9L1180.31 1054.6C1183.04 1057.33 1184.55 1060.97 1184.55 1064.84C1184.55 1068.7 1183.04 1072.34 1180.31 1075.07L1074.23 1181.15C1071.5 1183.88 1067.87 1185.39 1064 1185.39C1060.13 1185.39 1056.5 1183.88 1053.77 1181.15L1005.07 1132.45L956.37 1181.15C953.64 1183.88 950 1185.39 946.14 1185.39C942.27 1185.39 938.63 1183.88 935.9 1181.15L887.2 1132.45L838.51 1181.15C835.77 1183.88 832.14 1185.39 828.27 1185.39C824.41 1185.39 820.77 1183.88 818.04 1181.15L769.34 1132.45L720.64 1181.15C717.91 1183.88 714.28 1185.39 710.41 1185.39C706.54 1185.39 702.91 1183.88 700.18 1181.15L651.48 1132.45L602.78 1181.15C600.05 1183.88 596.41 1185.39 592.55 1185.39C588.68 1185.39 585.05 1183.88 582.31 1181.15L533.62 1132.45L484.92 1181.15C482.18 1183.88 478.55 1185.39 474.69 1185.39C470.82 1185.39 467.19 1183.88 464.45 1181.15L358.37 1075.07C355.64 1072.34 354.13 1068.7 354.13 1064.84C354.13 1060.97 355.64 1057.34 358.37 1054.6L407.07 1005.9L368.57 967.4L319.87 1016.1C317.14 1018.83 313.5 1020.34 309.64 1020.34C305.77 1020.34 302.14 1018.83 299.4 1016.1L190.63 907.32C187.89 904.59 186.39 900.96 186.39 897.09C186.39 893.22 187.89 889.59 190.63 886.85L239.32 838.16L179.48 778.31L130.78 827.01C128.05 829.74 124.42 831.25 120.55 831.25C116.68 831.25 113.05 829.74 110.32 827.01L4.24 720.93C1.51 718.2 0 714.57 0 710.7C0 706.83 1.51 703.2 4.24 700.46L52.94 651.77L4.24 603.07C1.51 600.34 0 596.7 0 592.84C0 588.97 1.51 585.34 4.24 582.6L52.94 533.9L4.24 485.21C1.51 482.47 0 478.84 0 474.97C0 471.11 1.51 467.47 4.24 464.74L52.94 416.04L4.24 367.34C1.51 364.61 0 360.97 0 357.11C0 353.24 1.51 349.61 4.24 346.87L52.94 298.18L4.24 249.48C1.51 246.75 0 243.11 0 239.25C0 235.38 1.51 231.74 4.24 229.01L52.94 180.31L4.24 131.61C1.51 128.88 0 125.25 0 121.38C0 117.52 1.51 113.88 4.24 111.15L110.32 5.07C113.05 2.33 116.68 0.83 120.55 0.83C124.42 0.83 128.05 2.33 130.79 5.07L179.48 53.77L228.18 5.07C230.91 2.33 234.55 0.83 238.42 0.83C242.28 0.83 245.92 2.33 248.65 5.07L297.35 53.77L346.05 5.07C348.78 2.33 352.41 0.83 356.28 0.83C360.15 0.83 363.78 2.33 366.51 5.07L415.21 53.77L463.91 5.07C466.64 2.33 470.28 0.83 474.14 0.83C477.95 0.83 481.68 2.37 484.37 5.07L533.07 53.77L581.77 5.07C584.5 2.33 588.14 0.83 592 0.83C595.87 0.83 599.51 2.33 602.24 5.07L650.94 53.77L699.63 5.07C702.37 2.33 706 0.83 709.87 0.83C713.74 0.83 717.37 2.33 720.11 5.07L826.19 111.15C828.92 113.88 830.42 117.52 830.42 121.38C830.42 125.25 828.92 128.88 826.19 131.62L777.49 180.32L837.33 240.16L886.03 191.46C888.76 188.73 892.39 187.22 896.26 187.22C900.13 187.22 903.76 188.73 906.5 191.46L1015.4 300.36C1021.04 306 1021.04 315.18 1015.4 320.83L966.84 369.39L1005.21 407.77L1053.78 359.21C1056.51 356.47 1060.14 354.97 1064.01 354.97C1067.87 354.97 1071.51 356.47 1074.24 359.21L1180.32 465.29C1183.05 468.02 1184.56 471.65 1184.56 475.52C1184.56 479.39 1183.05 483.02 1180.32 485.75L1131.62 534.45L1180.32 583.15C1183.05 585.88 1184.56 589.52 1184.56 593.38C1184.56 597.25 1183.06 600.88 1180.32 603.62L1131.62 652.32L1180.32 701.01C1183.06 703.75 1184.56 707.38 1184.56 711.25C1184.56 715.11 1183.06 718.75 1180.32 721.48L1131.62 770.18L1180.31 818.87ZM857.93 260.49L946.37 348.92L984.69 310.59L896.26 222.16L857.93 260.49ZM740.04 260.52L887.32 407.8L925.81 369.31L828.97 272.46L828.65 272.18C828.01 271.71 827.52 271.29 827.09 270.86L778.4 222.16L740.04 260.52ZM200.86 758.75L239.33 720.29L190.63 671.59C187.9 668.86 186.39 665.23 186.39 661.36C186.39 657.49 187.9 653.86 190.63 651.12L239.33 602.43L190.63 553.73C187.9 551 186.39 547.36 186.39 543.5C186.39 539.63 187.9 536 190.63 533.26L239.33 484.57L190.63 435.87C187.9 433.13 186.39 429.5 186.39 425.63C186.39 421.77 187.9 418.13 190.63 415.4L239.33 366.7L190.63 318C187.9 315.27 186.39 311.64 186.39 307.77C186.39 303.91 187.9 300.27 190.63 297.54L296.71 191.46C299.44 188.72 303.07 187.22 306.94 187.22C310.8 187.22 314.44 188.72 317.18 191.46L365.87 240.16L414.57 191.46C417.3 188.72 420.94 187.22 424.8 187.22C428.67 187.22 432.31 188.72 435.04 191.46L483.74 240.16L532.43 191.46C535.17 188.72 538.8 187.22 542.67 187.22C546.48 187.22 550.21 188.76 552.9 191.46L601.6 240.16L650.3 191.46C653.03 188.72 656.66 187.22 660.53 187.22C664.34 187.22 668.07 188.76 670.76 191.46L719.46 240.16L757.92 201.69L746.78 190.55C744.04 187.81 742.54 184.18 742.54 180.31C742.54 176.45 744.04 172.81 746.78 170.08L795.47 121.38L709.87 35.77L661.17 84.47C658.44 87.21 654.8 88.71 650.94 88.71C647.07 88.71 643.43 87.21 640.7 84.47L592 35.77L543.31 84.47C540.57 87.21 536.94 88.71 533.07 88.71C529.21 88.71 525.57 87.21 522.84 84.47L474.14 35.77L425.44 84.47C422.75 87.17 419.02 88.71 415.21 88.71C411.34 88.71 407.71 87.21 404.98 84.47L356.28 35.77L307.58 84.47C304.85 87.21 301.21 88.71 297.35 88.71C293.48 88.71 289.85 87.21 287.11 84.47L238.42 35.77L189.72 84.47C186.98 87.21 183.35 88.71 179.48 88.71C175.62 88.71 171.98 87.21 169.25 84.47L120.55 35.77L34.94 121.38L83.64 170.08C86.37 172.81 87.88 176.45 87.88 180.31C87.88 184.18 86.37 187.82 83.64 190.55L34.94 239.25L83.64 287.95C86.37 290.68 87.88 294.31 87.88 298.18C87.88 302.04 86.37 305.68 83.64 308.41L34.94 357.11L83.64 405.81C86.37 408.54 87.88 412.17 87.88 416.04C87.88 419.91 86.37 423.54 83.64 426.28L34.94 474.97L83.64 523.67C86.37 526.4 87.88 530.04 87.88 533.9C87.88 537.77 86.37 541.4 83.64 544.14L34.94 592.84L83.64 641.53C86.37 644.27 87.88 647.9 87.88 651.77C87.88 655.63 86.37 659.27 83.64 662L34.94 710.7L120.55 796.31L169.25 747.61C171.98 744.88 175.62 743.37 179.48 743.37C183.35 743.37 186.99 744.88 189.72 747.61L200.86 758.75ZM359.06 722.17L358.84 721.98C358.67 721.83 358.5 721.69 358.34 721.53L259.75 622.94L221.33 661.36L268.39 708.42L268.67 708.66C269.14 709.03 269.6 709.42 270.03 709.85L368.72 808.54L407.07 770.18L359.06 722.17ZM368.73 572.8L407.08 534.45L259.78 387.19L221.33 425.63L268.27 472.57L268.56 472.82C269.17 473.29 269.63 473.7 270.03 474.09L368.73 572.8ZM368.6 455.07L401.18 422.48L253.9 275.2L221.33 307.77L368.6 455.07ZM421.65 402.01L454.22 369.43L306.94 222.16L274.37 254.73L421.65 402.01ZM533.63 407.9L572.12 369.4L474.21 271.5L474.01 271.32C473.84 271.17 473.67 271.02 473.5 270.86L424.8 222.16L386.35 260.62L533.63 407.9ZM651.53 407.87L690.02 369.37L592.74 272.09L592.5 271.88C592.11 271.56 591.73 271.22 591.37 270.86L542.67 222.16L504.24 260.58L651.53 407.87ZM769.42 407.83L807.92 369.34L710.85 272.27L710.58 272.03C710.12 271.67 709.66 271.29 709.23 270.86L660.53 222.16L622.14 260.55L769.42 407.83ZM368.57 690.82L407.08 652.31L358.38 603.62C357.98 603.21 357.58 602.75 357.12 602.15L259.92 504.91L221.33 543.5L270.03 592.19C270.2 592.36 270.36 592.54 270.51 592.72L368.57 690.82ZM348.06 946.98L259.75 858.67L221.33 897.09L309.64 985.4L348.06 946.98ZM368.57 926.56L407.08 888.04L358.38 839.35C358 838.96 357.62 838.53 357.2 837.98L259.9 740.66L221.33 779.22L270.04 827.93C270.29 828.18 270.51 828.45 270.79 828.77L368.57 926.56ZM1149.62 829.11L1100.92 780.41C1098.19 777.68 1096.68 774.04 1096.68 770.18C1096.68 766.31 1098.19 762.68 1100.92 759.95L1149.62 711.25L1100.92 662.55C1098.19 659.82 1096.68 656.18 1096.68 652.32C1096.68 648.45 1098.19 644.82 1100.92 642.08L1149.62 593.38L1100.92 544.68C1098.19 541.95 1096.68 538.32 1096.68 534.45C1096.68 530.59 1098.19 526.95 1100.92 524.22L1149.62 475.52L1064.01 389.91L1015.31 438.61C1012.58 441.34 1008.95 442.85 1005.08 442.85C1001.21 442.85 997.58 441.34 994.84 438.61L946.15 389.91L897.45 438.61C894.72 441.34 891.08 442.85 887.21 442.85C883.35 442.85 879.71 441.34 876.98 438.61L828.28 389.91L779.58 438.61C776.85 441.34 773.22 442.85 769.35 442.85C765.48 442.85 761.85 441.34 759.12 438.61L710.42 389.91L661.72 438.61C658.99 441.34 655.36 442.85 651.49 442.85C647.62 442.85 643.99 441.34 641.25 438.61L592.56 389.91L543.86 438.61C541.13 441.34 537.49 442.85 533.62 442.85C529.76 442.85 526.12 441.34 523.39 438.61L474.69 389.91L389.09 475.52L437.78 524.22C440.52 526.95 442.02 530.58 442.02 534.45C442.02 538.32 440.52 541.95 437.78 544.69L389.09 593.38L437.78 642.08C440.52 644.81 442.02 648.45 442.02 652.31C442.02 656.18 440.52 659.81 437.78 662.55L389.09 711.25L437.78 759.95C440.52 762.68 442.02 766.31 442.02 770.18C442.02 774.04 440.52 777.68 437.78 780.41L389.09 829.11L437.78 877.81C440.52 880.54 442.02 884.17 442.02 888.04C442.02 891.91 440.52 895.54 437.78 898.28L389.09 946.97L437.78 995.67C440.52 998.4 442.02 1002.04 442.02 1005.9C442.02 1009.77 440.52 1013.4 437.78 1016.14L389.09 1064.84L474.69 1150.45L523.39 1101.75C526.12 1099.01 529.76 1097.51 533.63 1097.51C537.49 1097.51 541.13 1099.01 543.86 1101.75L592.56 1150.45L641.25 1101.75C643.99 1099.01 647.62 1097.51 651.49 1097.51C655.35 1097.51 658.99 1099.01 661.72 1101.75L710.42 1150.45L759.12 1101.75C761.85 1099.01 765.48 1097.51 769.35 1097.51C773.22 1097.51 776.85 1099.01 779.59 1101.75L828.28 1150.45L876.98 1101.75C879.71 1099.01 883.35 1097.51 887.21 1097.51C891.08 1097.51 894.71 1099.01 897.45 1101.75L946.15 1150.45L994.84 1101.75C997.58 1099.01 1001.21 1097.51 1005.08 1097.51C1008.94 1097.51 1012.58 1099.01 1015.31 1101.75L1064.01 1150.45L1149.62 1064.84L1100.92 1016.14C1098.19 1013.4 1096.68 1009.77 1096.68 1005.9C1096.68 1002.04 1098.19 998.4 1100.92 995.67L1149.62 946.97L1100.92 898.28C1098.19 895.54 1096.68 891.91 1096.68 888.04C1096.68 884.18 1098.19 880.54 1100.92 877.81L1149.62 829.11Z" />
	</g>
</svg>
